assets/illustrations/multisize/32/font.svg

<svg id="51565acf-2410-40fe-93d0-ea014f1c1135" data-name="ICONS" xmlns="http://www.w3.org/2000/svg" xmlns:xlink="http://www.w3.org/1999/xlink" viewBox="0 0 32 32"><defs><linearGradient id="87169386-7545-42d2-87a9-e89d9cf4d3fc" x1="15.54688" y1="9.65283" x2="15.54688" y2="23.875" gradientUnits="userSpaceOnUse"><stop offset="0" stop-color="#f7903b"/><stop offset="1" stop-color="#ff5c0d"/></linearGradient><linearGradient id="f048ea27-d498-4917-aa83-c438e2802583" x1="3.0842" y1="3.60755" x2="25.96138" y2="30.87151" gradientUnits="userSpaceOnUse"><stop offset="0" stop-color="#fff" stop-opacity="0"/><stop offset="0.86247" stop-color="#5e5e5e" stop-opacity="0.06315"/><stop offset="1" stop-opacity="0.1"/></linearGradient><linearGradient id="1fb0e8a4-db71-432d-b9c6-4ca26c66df8a" x1="20.14788" y1="9.10212" x2="24.11437" y2="5.13563" gradientUnits="userSpaceOnUse"><stop offset="0" stop-color="#fff" stop-opacity="0"/><stop offset="0.44604" stop-color="#fff" stop-opacity="0.00799"/><stop offset="0.63551" stop-color="#fff" stop-opacity="0.03616"/><stop offset="0.77636" stop-color="#fff" stop-opacity="0.08493"/><stop offset="0.8924" stop-color="#fff" stop-opacity="0.15385"/><stop offset="0.99328" stop-color="#fff" stop-opacity="0.24291"/><stop offset="1" stop-color="#fff" stop-opacity="0.25"/></linearGradient><linearGradient id="777a8a30-7d0a-471f-8311-d38a9607adf8" x1="23" y1="10.9375" x2="23" y2="9.05834" gradientUnits="userSpaceOnUse"><stop offset="0" stop-color="#828282" stop-opacity="0"/><stop offset="0.86247" stop-color="#303030" stop-opacity="0.06315"/><stop offset="1" stop-opacity="0.1"/></linearGradient></defs><title>FileTypeIcons_Master_All_NEW</title><polygon points="26 29 6 29 6 3 21 3 26 8 26 29" fill="#fff"/><path d="M21,2H5V30H27V8Zm0,1.5L25.5,8H21ZM26,29H6V3H20V9h6Z" fill="#949494"/><path d="M17.60791,19.21973h-5.3833l-.94336,2.19433a3.474,3.474,0,0,0-.34863,1.21.70067.70067,0,0,0,.30273.5586,2.63414,2.63414,0,0,0,1.30713.313V23.875H8.16406v-.37939A2.35921,2.35921,0,0,0,9.292,23.0957a6.2811,6.2811,0,0,0,1.15869-1.99951L15.3418,9.65283h.35888l4.83985,11.56641a5.2878,5.2878,0,0,0,1.061,1.81006,2.16829,2.16829,0,0,0,1.32813.46631V23.875H17.44385v-.37939a2.05431,2.05431,0,0,0,1.12256-.27686.71286.71286,0,0,0,.29248-.57422,4.25134,4.25134,0,0,0-.41016-1.42529Zm-.28711-.75879L14.9624,12.8418l-2.41992,5.61914Z" fill="url(#87169386-7545-42d2-87a9-e89d9cf4d3fc)"/><path d="M27,8,21,2H5V30H27Z" fill="url(#f048ea27-d498-4917-aa83-c438e2802583)"/><polygon points="5 2 5 3 20 3 20 9 26 9 26 24.5 27 24.5 27 8 21 2 5 2" fill="url(#1fb0e8a4-db71-432d-b9c6-4ca26c66df8a)"/><rect x="20" y="9" width="6" height="2" fill="url(#777a8a30-7d0a-471f-8311-d38a9607adf8)"/></svg>

<?xml version="1.0" encoding="utf-8"?>
<!-- Generator: Adobe Illustrator 21.1.0, SVG Export Plug-In . SVG Version: 6.00 Build 0)  -->
<svg version="1.1" xmlns="http://www.w3.org/2000/svg" xmlns:xlink="http://www.w3.org/1999/xlink" x="0px" y="0px"
	 viewBox="0 0 32 32" enable-background="new 0 0 32 32" xml:space="preserve">
<g id="TEMPLATE" display="none">
	<g display="inline">
		<path fill="#D0D0D0" d="M32,0v32H0V0H32 M33-1h-1H0h-1v1v32v1h1h32h1v-1V0V-1L33-1z"/>
	</g>
	<g display="inline" opacity="0.1">
		<path fill="#FF3A6D" d="M30,2v28H2V2H30 M32,0H0v32h32V0L32,0z"/>
	</g>
</g>
<g id="ICONS">
	<g>
		<polygon fill="#FFFFFF" points="26,29 6,29 6,3 21,3 26,8 		"/>
		<path fill="#949494" d="M21,2H5v28h22V8L21,2z M21,3.5L25.5,8H21V3.5z M26,29H6V3h14v6h6V29z"/>
	</g>
	<g>
		<linearGradient id="SVGID_1_" gradientUnits="userSpaceOnUse" x1="15.5469" y1="9.6528" x2="15.5469" y2="23.875">
			<stop  offset="0" style="stop-color:#F7903B"/>
			<stop  offset="1" style="stop-color:#FF5C0D"/>
		</linearGradient>
		<path fill="url(#SVGID_1_)" d="M17.6079,19.2197h-5.3833l-0.9434,2.1943c-0.2324,0.54-0.3486,0.9434-0.3486,1.21
			c0,0.2119,0.1006,0.3984,0.3027,0.5586c0.2012,0.1611,0.6372,0.2651,1.3071,0.313v0.3794H8.1641v-0.3794
			c0.5811-0.1025,0.957-0.2358,1.1279-0.3999c0.3486-0.3281,0.7349-0.9946,1.1587-1.9995l4.8911-11.4434h0.3589l4.8398,11.5664
			c0.3896,0.9297,0.7437,1.5327,1.061,1.8101c0.3184,0.2764,0.7607,0.4321,1.3281,0.4663v0.3794h-5.4858v-0.3794
			c0.5537-0.0273,0.9282-0.1196,1.1226-0.2769c0.1953-0.1572,0.2925-0.3486,0.2925-0.5742c0-0.3008-0.1367-0.7759-0.4102-1.4253
			L17.6079,19.2197z M17.3208,18.4609l-2.3584-5.6191l-2.4199,5.6191H17.3208z"/>
	</g>
	<linearGradient id="SVGID_2_" gradientUnits="userSpaceOnUse" x1="3.0842" y1="3.6075" x2="25.9614" y2="30.8715">
		<stop  offset="0" style="stop-color:#FFFFFF;stop-opacity:0"/>
		<stop  offset="0.2264" style="stop-color:#FCFCFC;stop-opacity:0.0226"/>
		<stop  offset="0.3626" style="stop-color:#F4F4F4;stop-opacity:0.0363"/>
		<stop  offset="0.475" style="stop-color:#E6E6E6;stop-opacity:0.0475"/>
		<stop  offset="0.5744" style="stop-color:#D1D1D1;stop-opacity:0.0574"/>
		<stop  offset="0.6652" style="stop-color:#B7B7B7;stop-opacity:0.0665"/>
		<stop  offset="0.7498" style="stop-color:#979797;stop-opacity:0.075"/>
		<stop  offset="0.8297" style="stop-color:#707070;stop-opacity:0.083"/>
		<stop  offset="0.9057" style="stop-color:#444444;stop-opacity:0.0906"/>
		<stop  offset="0.9761" style="stop-color:#121212;stop-opacity:0.0976"/>
		<stop  offset="1" style="stop-color:#000000;stop-opacity:0.1"/>
	</linearGradient>
	<path fill="url(#SVGID_2_)" d="M27,8l-6-6H5v28h22V8z"/>
	<linearGradient id="SVGID_3_" gradientUnits="userSpaceOnUse" x1="20.1479" y1="9.1021" x2="24.1144" y2="5.1356">
		<stop  offset="0" style="stop-color:#FFFFFF;stop-opacity:0"/>
		<stop  offset="0.8537" style="stop-color:#FFFFFF;stop-opacity:0.2134"/>
		<stop  offset="1" style="stop-color:#FFFFFF;stop-opacity:0.25"/>
	</linearGradient>
	<polygon fill="url(#SVGID_3_)" points="5,2 5,3 20,3 20,9 26,9 26,24.5 27,24.5 27,8 21,2 	"/>
	<linearGradient id="SVGID_4_" gradientUnits="userSpaceOnUse" x1="23" y1="10.9375" x2="23" y2="9.0583">
		<stop  offset="0" style="stop-color:#828282;stop-opacity:0"/>
		<stop  offset="0.2812" style="stop-color:#7F7F7F;stop-opacity:0.0281"/>
		<stop  offset="0.4503" style="stop-color:#777777;stop-opacity:0.045"/>
		<stop  offset="0.5899" style="stop-color:#696969;stop-opacity:0.059"/>
		<stop  offset="0.7133" style="stop-color:#545454;stop-opacity:0.0713"/>
		<stop  offset="0.8259" style="stop-color:#3A3A3A;stop-opacity:0.0826"/>
		<stop  offset="0.9294" style="stop-color:#1A1A1A;stop-opacity:0.0929"/>
		<stop  offset="1" style="stop-color:#000000;stop-opacity:0.1"/>
	</linearGradient>
	<rect x="20" y="9" fill="url(#SVGID_4_)" width="6" height="2"/>
</g>
</svg>
